static/img/xr/Slider_24_Text_2_Anatomy.svg

<svg fill="none" height="80" viewBox="0 0 200 80" width="200" xmlns="http://www.w3.org/2000/svg"><g fill="#89c6ed"><circle cx="29" cy="69" r="1"/><circle cx="39.1428" cy="69" r="1"/><circle cx="49.2858" cy="69" r="1"/><circle cx="59.4286" cy="69" r="1"/><circle cx="69.5714" cy="69" r="1"/><circle cx="79.7142" cy="69" r="1"/><circle cx="89.8572" cy="69" r="1"/><circle cx="100" cy="69" r="1"/><circle cx="110.143" cy="69" r="1"/><circle cx="120.286" cy="69" r="1"/><circle cx="130.429" cy="69" r="1"/><circle cx="140.571" cy="69" r="1"/><circle cx="150.714" cy="69" r="1"/><circle cx="160.857" cy="69" r="1"/><circle cx="171" cy="69" r="1"/><rect height="2" rx="1" width="144" x="28" y="52"/></g><path d="m95.9775 18h-.5009v-3.8437h-1.3477v-.4395h3.1904v.4395h-1.3418zm2.4024-3.2109v3.2109h-.4863v-3.2109zm-.2373-1.2012c.0801 0 .1484.0264.2051.0791.0585.0508.0878.1309.0878.2403 0 .1074-.0293.1875-.0878.2402-.0567.0527-.125.0791-.2051.0791-.084 0-.1543-.0264-.211-.0791-.0546-.0527-.082-.1328-.082-.2402 0-.1094.0274-.1895.082-.2403.0567-.0527.127-.0791.211-.0791zm2.3054 4.0723c.08 0 .162-.0068.246-.0205s.153-.0303.205-.0498v.3779c-.056.0254-.135.0469-.237.0645-.1.0175-.197.0263-.293.0263-.17 0-.324-.0293-.4628-.0879-.1386-.0605-.25-.1621-.3339-.3047-.0821-.1425-.1231-.3398-.1231-.5918v-1.9042h-.457v-.2374l.4599-.1904.1934-.6972h.293v.7441h.9405v.3809h-.9405v1.8896c0 .2012.0459.3516.1375.4512.094.0996.218.1494.372.1494zm1.591.3398h-.489v-4.5586h.489zm2.265-3.2695c.273 0 .508.0605.703.1816s.345.2911.448.5098c.104.2168.155.4707.155.7617v.3018h-2.217c.005.3769.099.664.281.8613.181.1973.437.2959.767.2959.204 0 .383-.0185.539-.0557.157-.0371.319-.0918.487-.164v.4277c-.162.0723-.323.125-.484.1582-.158.0332-.345.0498-.562.0498-.309 0-.578-.0625-.809-.1875-.228-.1269-.406-.3125-.533-.5566-.127-.2442-.19-.543-.19-.8965 0-.3457.057-.6445.173-.8965.117-.2539.281-.4492.492-.5859.213-.1367.463-.2051.75-.2051zm-.006.3984c-.26 0-.467.085-.621.2549-.155.1699-.246.4072-.276.7119h1.7c-.002-.1914-.033-.3593-.091-.5039-.057-.1465-.144-.2597-.261-.3398-.117-.082-.268-.1231-.451-.1231z" fill="#252a2e"/><path d="m92.4561 24.8614-2.4268 7.1386h-1.6504l-2.4219-7.1386h1.5284l1.3427 4.248c.0228.0716.0602.2067.1123.4053.0521.1953.1042.4036.1563.625.0553.2181.0928.3987.1123.542.0195-.1433.0537-.3239.1025-.542.0521-.2181.1026-.4248.1514-.6201.0521-.1986.0895-.3353.1123-.4102l1.3525-4.248zm3.0224 1.5673c.7324 0 1.294.1595 1.6846.4786.3906.319.5859.804.5859 1.455v3.6377h-1.04l-.2881-.7422h-.0391c-.1562.1954-.3157.3549-.4785.4786-.1627.1237-.3499.2148-.5615.2734s-.4688.0879-.7715.0879c-.3223 0-.612-.0619-.8691-.1856-.2539-.1237-.4541-.3125-.6006-.5664-.1465-.2571-.2197-.5826-.2197-.9765 0-.5795.2034-1.0059.6103-1.2793.4069-.2767 1.0173-.4297 1.8311-.459l.9472-.0293v-.2393c0-.2864-.0748-.4964-.2246-.6298-.1497-.1335-.3581-.2002-.625-.2002-.2637 0-.5224.0374-.7763.1123-.254.0748-.5079.1692-.7618.2832l-.4931-1.0059c.2897-.153.6136-.2734.9717-.3613.3613-.0879.734-.1319 1.1181-.1319zm.791 3.042-.5761.0196c-.4818.013-.8171.0992-1.0059.2588-.1855.1595-.2783.3694-.2783.6298 0 .2279.0667.3907.2002.4883.1334.0944.3076.1416.5224.1416.319 0 .5876-.0944.8057-.2832.2214-.1888.332-.4573.332-.8056zm4.5065 2.5293h-1.4889v-7.5976h1.4889zm6.578-5.459v5.459h-1.143l-.2-.6982h-.078c-.118.1855-.264.3369-.44.4541s-.369.2034-.581.2588c-.211.0553-.431.083-.659.083-.391 0-.731-.0684-1.021-.2051-.289-.14-.516-.3564-.678-.6494-.16-.293-.24-.6738-.24-1.1426v-3.5596h1.49v3.1885c0 .3906.07.6852.21.8838s.363.2979.669.2979c.302 0 .54-.0684.713-.2051.172-.14.292-.3434.361-.6104.071-.2701.107-.5989.107-.9863v-2.5684zm3.813-.1025c.505 0 .939.0977 1.304.293.364.192.646.472.844.8398.199.3679.298.8171.298 1.3477v.7226h-3.52c.016.42.141.7504.376.9912.237.2377.566.3565.986.3565.348 0 .667-.0358.957-.1074s.588-.1791.894-.3223v1.1523c-.271.1335-.554.2312-.85.293-.293.0619-.649.0928-1.069.0928-.547 0-1.032-.1009-1.455-.3027-.42-.2019-.751-.5095-.992-.9229-.237-.4134-.356-.9342-.356-1.5625 0-.638.107-1.1686.322-1.5918.218-.4264.521-.7454.908-.957.388-.2149.839-.3223 1.353-.3223zm.01 1.0596c-.29 0-.531.0928-.723.2783-.189.1855-.298.4769-.327.874h2.09c-.003-.2213-.044-.4183-.122-.5908-.075-.1725-.189-.3092-.342-.4102-.15-.1009-.342-.1513-.576-.1513z" fill="#252a2e"/><rect fill="#cbcdd6" height="24" rx="8" width="20" x="90" y="42"/><path d="m101.607 55.4267c-.067-.58-.2-1.1533-.414-1.6933-.465.1834-.973.2332-1.4652.1437-.4923-.0895-.9499-.3148-1.3211-.6504-.5533.5733-1.0467 1.2067-1.48 1.8733 1.2733 1.04 3.3663 1.3134 4.6803.3267zm-3.187-3.0733c.3934-.3667.82-.7067 1.2667-1.0067-.4055-.3728-.8815-.6607-1.4-.8467-.3733.58-.32 1.34.1333 1.86m1.727-1.3466c.306-.2267.633-.4067.986-.5467-.308-.3-.7-.4984-1.125-.5688-.4239-.0703-.8595-.0091-1.248.1755.5134.2266.9867.5466 1.393.94m-4.173-.6467c-.8933 1.2667-.4733 3.1133.56 4.2733.4433-.6758.9477-1.3096 1.5067-1.8933-.5733-.6667-.6867-1.6133-.2667-2.3933-.5933-.1467-1.2133-.14-1.8.0133zm1.8-.0133 3.66 2.4733c.44-.56.447-1.3467.02-1.9133-.333.1333-.64.32-.92.54.353.42.66.88.9 1.3733m-3.2866-3.0467c.3933-.28.86-.4333 1.34-.4466-.9867-.1667-2-.0534-2.9267.3333.5333-.06 1.0733-.02 1.5867.1133zm2.8466 3.3934c-.24-.5067-.547-.9734-.907-1.3934-.453.3-.8796.64-1.2796 1.0067.6.5267 1.4466.68 2.1866.3867zm1.3-1.4067c.087.6133-.153 1.2267-.627 1.6333.194.4934.34 1 .427 1.52.31-.4605.492-.9953.528-1.5495.035-.5542-.078-1.1078-.328-1.6038zm-.113 3.94c.013.38 0 .7667-.054 1.1467.702-.8996 1.04-2.0298.947-3.1667-.067.7533-.38 1.46-.893 2.02zm3.833-1.6933-2.647-1.5334c.314 1 .307 2.0667-.013 3.0667zm-9.36 1.66c-.3866.6333-.6733 1.3266-.84 2.0533.8087.6094 1.7981.9306 2.8106.9125 1.0124-.0181 1.9894-.3746 2.7764-1.0125.18-.4667.266-.9667.253-1.4667-.792.409-1.6848.5806-2.5718.4943-.8869-.0863-1.7301-.427-2.4282-.9809zm-.4133-.48c-.5242-.5337-.9048-1.1914-1.1065-1.9117-.2016-.7204-.2178-1.4801-.0468-2.2083-.7368.869-1.1185 1.984-1.0691 3.1222s.5264 2.2159 1.3357 3.0178c.2067-.7134.5067-1.3934.8934-2.02m1.2066-6.3267-2.6333-1.5133v3.0333c.7014-.7631 1.6209-1.2915 2.6333-1.5133zm-2.6333 11.8067 2.6533-1.5334c-1.0199-.2212-1.9466-.752-2.6533-1.52z" fill="#252a2e"/><path d="m16.25 8.25h73.5v63.5h-73.5z" fill="#89c6ed" fill-opacity=".5" stroke="#fff" stroke-width=".5"/><path d="m110.25 8.25h73.5v63.5h-73.5z" fill="#89c6ed" fill-opacity=".5" stroke="#fff" stroke-width=".5"/><path d="m90.25 42.25h19.5v23.5h-19.5z" fill="#89c6ed" fill-opacity=".5" stroke="#fff" stroke-width=".5"/><path d="m0 8h7.99999v200h-7.99999z" fill="#ff95f8" fill-opacity=".5" transform="matrix(0 -1 1 0 -8 8)"/><path d="m16 72h16v64h-16z" fill="#ff95f8" fill-opacity=".5" transform="matrix(-1 0 0 -1 32 144)"/><path d="m200 72h16v64h-16z" fill="#ff95f8" fill-opacity=".5" transform="matrix(-1 0 0 -1 400 144)"/><path d="m0 80h7.99999v200h-7.99999z" fill="#ff95f8" fill-opacity=".5" transform="matrix(0 -1 1 0 -80 80)"/></svg>

<svg width="200" height="80" viewBox="0 0 200 80" fill="none" xmlns="http://www.w3.org/2000/svg">
<circle cx="29" cy="69" r="1" fill="#89C6ED"/>
<circle cx="39.1428" cy="69" r="1" fill="#89C6ED"/>
<circle cx="49.2858" cy="69" r="1" fill="#89C6ED"/>
<circle cx="59.4286" cy="69" r="1" fill="#89C6ED"/>
<circle cx="69.5714" cy="69" r="1" fill="#89C6ED"/>
<circle cx="79.7142" cy="69" r="1" fill="#89C6ED"/>
<circle cx="89.8572" cy="69" r="1" fill="#89C6ED"/>
<circle cx="100" cy="69" r="1" fill="#89C6ED"/>
<circle cx="110.143" cy="69" r="1" fill="#89C6ED"/>
<circle cx="120.286" cy="69" r="1" fill="#89C6ED"/>
<circle cx="130.429" cy="69" r="1" fill="#89C6ED"/>
<circle cx="140.571" cy="69" r="1" fill="#89C6ED"/>
<circle cx="150.714" cy="69" r="1" fill="#89C6ED"/>
<circle cx="160.857" cy="69" r="1" fill="#89C6ED"/>
<circle cx="171" cy="69" r="1" fill="#89C6ED"/>
<rect x="28" y="52" width="144" height="2" rx="1" fill="#89C6ED"/>
<path d="M95.9775 18H95.4766V14.1563H94.1289V13.7168H97.3193V14.1563H95.9775V18ZM98.3799 14.7891V18H97.8936V14.7891H98.3799ZM98.1426 13.5879C98.2227 13.5879 98.291 13.6143 98.3477 13.667C98.4062 13.7178 98.4355 13.7979 98.4355 13.9073C98.4355 14.0147 98.4062 14.0948 98.3477 14.1475C98.291 14.2002 98.2227 14.2266 98.1426 14.2266C98.0586 14.2266 97.9883 14.2002 97.9316 14.1475C97.877 14.0948 97.8496 14.0147 97.8496 13.9073C97.8496 13.7979 97.877 13.7178 97.9316 13.667C97.9883 13.6143 98.0586 13.5879 98.1426 13.5879ZM100.448 17.6602C100.528 17.6602 100.61 17.6534 100.694 17.6397C100.778 17.626 100.847 17.6094 100.899 17.5899V17.9678C100.843 17.9932 100.764 18.0147 100.662 18.0323C100.562 18.0498 100.465 18.0586 100.369 18.0586C100.199 18.0586 100.045 18.0293 99.9062 17.9707C99.7676 17.9102 99.6562 17.8086 99.5723 17.666C99.4902 17.5235 99.4492 17.3262 99.4492 17.0742V15.17H98.9922V14.9326L99.4521 14.7422L99.6455 14.045H99.9385V14.7891H100.879V15.17H99.9385V17.0596C99.9385 17.2608 99.9844 17.4112 100.076 17.5108C100.17 17.6104 100.294 17.6602 100.448 17.6602ZM102.039 18H101.55V13.4414H102.039V18ZM104.304 14.7305C104.577 14.7305 104.812 14.791 105.007 14.9121C105.202 15.0332 105.352 15.2032 105.455 15.4219C105.559 15.6387 105.61 15.8926 105.61 16.1836V16.4854H103.393C103.398 16.8623 103.492 17.1494 103.674 17.3467C103.855 17.544 104.111 17.6426 104.441 17.6426C104.645 17.6426 104.824 17.6241 104.98 17.5869C105.137 17.5498 105.299 17.4951 105.467 17.4229V17.8506C105.305 17.9229 105.144 17.9756 104.983 18.0088C104.825 18.042 104.638 18.0586 104.421 18.0586C104.112 18.0586 103.843 17.9961 103.612 17.8711C103.384 17.7442 103.206 17.5586 103.079 17.3145C102.952 17.0703 102.889 16.7715 102.889 16.418C102.889 16.0723 102.946 15.7735 103.062 15.5215C103.179 15.2676 103.343 15.0723 103.554 14.9356C103.767 14.7989 104.017 14.7305 104.304 14.7305ZM104.298 15.1289C104.038 15.1289 103.831 15.2139 103.677 15.3838C103.522 15.5537 103.431 15.791 103.401 16.0957H105.101C105.099 15.9043 105.068 15.7364 105.01 15.5918C104.953 15.4453 104.866 15.3321 104.749 15.252C104.632 15.17 104.481 15.1289 104.298 15.1289Z" fill="#252A2E"/>
<path d="M92.4561 24.8614L90.0293 32H88.3789L85.957 24.8614H87.4854L88.8281 29.1094C88.8509 29.181 88.8883 29.3161 88.9404 29.5147C88.9925 29.71 89.0446 29.9183 89.0967 30.1397C89.152 30.3578 89.1895 30.5384 89.209 30.6817C89.2285 30.5384 89.2627 30.3578 89.3115 30.1397C89.3636 29.9216 89.4141 29.7149 89.4629 29.5196C89.515 29.321 89.5524 29.1843 89.5752 29.1094L90.9277 24.8614H92.4561ZM95.4785 26.4287C96.2109 26.4287 96.7725 26.5882 97.1631 26.9073C97.5537 27.2263 97.749 27.7113 97.749 28.3623V32H96.709L96.4209 31.2578H96.3818C96.2256 31.4532 96.0661 31.6127 95.9033 31.7364C95.7406 31.8601 95.5534 31.9512 95.3418 32.0098C95.1302 32.0684 94.873 32.0977 94.5703 32.0977C94.248 32.0977 93.9583 32.0358 93.7012 31.9121C93.4473 31.7884 93.2471 31.5996 93.1006 31.3457C92.9541 31.0886 92.8809 30.7631 92.8809 30.3692C92.8809 29.7897 93.0843 29.3633 93.4912 29.0899C93.8981 28.8132 94.5085 28.6602 95.3223 28.6309L96.2695 28.6016V28.3623C96.2695 28.0759 96.1947 27.8659 96.0449 27.7325C95.8952 27.599 95.6868 27.5323 95.4199 27.5323C95.1562 27.5323 94.8975 27.5697 94.6436 27.6446C94.3896 27.7194 94.1357 27.8138 93.8818 27.9278L93.3887 26.9219C93.6784 26.7689 94.0023 26.6485 94.3604 26.5606C94.7217 26.4727 95.0944 26.4287 95.4785 26.4287ZM96.2695 29.4707L95.6934 29.4903C95.2116 29.5033 94.8763 29.5895 94.6875 29.7491C94.502 29.9086 94.4092 30.1185 94.4092 30.3789C94.4092 30.6068 94.4759 30.7696 94.6094 30.8672C94.7428 30.9616 94.917 31.0088 95.1318 31.0088C95.4508 31.0088 95.7194 30.9144 95.9375 30.7256C96.1589 30.5368 96.2695 30.2683 96.2695 29.92V29.4707ZM100.776 32H99.2871V24.4024H100.776V32ZM107.354 26.541V32H106.211L106.011 31.3018H105.933C105.815 31.4873 105.669 31.6387 105.493 31.7559C105.317 31.8731 105.124 31.9593 104.912 32.0147C104.701 32.07 104.481 32.0977 104.253 32.0977C103.862 32.0977 103.522 32.0293 103.232 31.8926C102.943 31.7526 102.716 31.5362 102.554 31.2432C102.394 30.9502 102.314 30.5694 102.314 30.1006V26.541H103.804V29.7295C103.804 30.1201 103.874 30.4147 104.014 30.6133C104.154 30.8119 104.377 30.9112 104.683 30.9112C104.985 30.9112 105.223 30.8428 105.396 30.7061C105.568 30.5661 105.688 30.3627 105.757 30.0957C105.828 29.8256 105.864 29.4968 105.864 29.1094V26.541H107.354ZM111.167 26.4385C111.672 26.4385 112.106 26.5362 112.471 26.7315C112.835 26.9235 113.117 27.2035 113.315 27.5713C113.514 27.9392 113.613 28.3884 113.613 28.919V29.6416H110.093C110.109 30.0616 110.234 30.392 110.469 30.6328C110.706 30.8705 111.035 30.9893 111.455 30.9893C111.803 30.9893 112.122 30.9535 112.412 30.8819C112.702 30.8103 113 30.7028 113.306 30.5596V31.7119C113.035 31.8454 112.752 31.9431 112.456 32.0049C112.163 32.0668 111.807 32.0977 111.387 32.0977C110.84 32.0977 110.355 31.9968 109.932 31.795C109.512 31.5931 109.181 31.2855 108.94 30.8721C108.703 30.4587 108.584 29.9379 108.584 29.3096C108.584 28.6716 108.691 28.141 108.906 27.7178C109.124 27.2914 109.427 26.9724 109.814 26.7608C110.202 26.5459 110.653 26.4385 111.167 26.4385ZM111.177 27.4981C110.887 27.4981 110.646 27.5909 110.454 27.7764C110.265 27.9619 110.156 28.2533 110.127 28.6504H112.217C112.214 28.4291 112.173 28.2321 112.095 28.0596C112.02 27.8871 111.906 27.7504 111.753 27.6494C111.603 27.5485 111.411 27.4981 111.177 27.4981Z" fill="#252A2E"/>
<rect x="90" y="42" width="20" height="24" rx="8" fill="#CBCDD6"/>
<path d="M101.607 55.4267C101.54 54.8467 101.407 54.2734 101.193 53.7334C100.728 53.9168 100.22 53.9666 99.7278 53.8771C99.2355 53.7876 98.7779 53.5623 98.4067 53.2267C97.8534 53.8 97.36 54.4334 96.9267 55.1C98.2 56.14 100.293 56.4134 101.607 55.4267ZM98.42 52.3534C98.8134 51.9867 99.24 51.6467 99.6867 51.3467C99.2812 50.9739 98.8052 50.686 98.2867 50.5C97.9134 51.08 97.9667 51.84 98.42 52.36M100.147 51.0134C100.453 50.7867 100.78 50.6067 101.133 50.4667C100.825 50.1667 100.433 49.9683 100.008 49.8979C99.5841 49.8276 99.1485 49.8888 98.76 50.0734C99.2734 50.3 99.7467 50.62 100.153 51.0134M95.98 50.3667C95.0867 51.6334 95.5067 53.48 96.54 54.64C96.9833 53.9642 97.4877 53.3304 98.0467 52.7467C97.4734 52.08 97.36 51.1334 97.78 50.3534C97.1867 50.2067 96.5667 50.2134 95.98 50.3667ZM97.78 50.3534L101.44 52.8267C101.88 52.2667 101.887 51.48 101.46 50.9134C101.127 51.0467 100.82 51.2334 100.54 51.4534C100.893 51.8734 101.2 52.3334 101.44 52.8267M98.1534 49.78C98.5467 49.5 99.0134 49.3467 99.4934 49.3334C98.5067 49.1667 97.4934 49.28 96.5667 49.6667C97.1 49.6067 97.64 49.6467 98.1534 49.78ZM101 53.1734C100.76 52.6667 100.453 52.2 100.093 51.78C99.64 52.08 99.2134 52.42 98.8134 52.7867C99.4134 53.3134 100.26 53.4667 101 53.1734ZM102.3 51.7667C102.387 52.38 102.147 52.9934 101.673 53.4C101.867 53.8934 102.013 54.4 102.1 54.92C102.41 54.4595 102.592 53.9247 102.628 53.3705C102.663 52.8163 102.55 52.2627 102.3 51.7667ZM102.187 55.7067C102.2 56.0867 102.187 56.4734 102.133 56.8534C102.835 55.9538 103.173 54.8236 103.08 53.6867C103.013 54.44 102.7 55.1467 102.187 55.7067ZM106.02 54.0134L103.373 52.48C103.687 53.48 103.68 54.5467 103.36 55.5467L106.02 54.0134ZM96.66 55.6734C96.2734 56.3067 95.9867 57 95.82 57.7267C96.6287 58.3361 97.6181 58.6573 98.6306 58.6392C99.643 58.6211 100.62 58.2646 101.407 57.6267C101.587 57.16 101.673 56.66 101.66 56.16C100.868 56.569 99.9752 56.7406 99.0882 56.6543C98.2013 56.568 97.3581 56.2273 96.66 55.6734ZM96.2467 55.1934C95.7225 54.6597 95.3419 54.002 95.1402 53.2817C94.9386 52.5613 94.9224 51.8016 95.0934 51.0734C94.3566 51.9424 93.9749 53.0574 94.0243 54.1956C94.0737 55.3338 94.5507 56.4115 95.36 57.2134C95.5667 56.5 95.8667 55.82 96.2534 55.1934M97.46 48.8667L94.8267 47.3534V50.3867C95.5281 49.6236 96.4476 49.0952 97.46 48.8734V48.8667ZM94.8267 60.6734L97.48 59.14C96.4601 58.9188 95.5334 58.388 94.8267 57.62V60.6734Z" fill="#252A2E"/>
<path d="M16.25 8.25H89.75V71.75H16.25V8.25Z" fill="#89C6ED" fill-opacity="0.5" stroke="white" stroke-width="0.5"/>
<path d="M110.25 8.25H183.75V71.75H110.25V8.25Z" fill="#89C6ED" fill-opacity="0.5" stroke="white" stroke-width="0.5"/>
<path d="M90.25 42.25H109.75V65.75H90.25V42.25Z" fill="#89C6ED" fill-opacity="0.5" stroke="white" stroke-width="0.5"/>
<rect y="8" width="7.99999" height="200" transform="rotate(-90 0 8)" fill="#FF95F8" fill-opacity="0.5"/>
<rect x="16" y="72" width="16" height="64" transform="rotate(180 16 72)" fill="#FF95F8" fill-opacity="0.5"/>
<rect x="200" y="72" width="16" height="64" transform="rotate(180 200 72)" fill="#FF95F8" fill-opacity="0.5"/>
<rect y="80" width="7.99999" height="200" transform="rotate(-90 0 80)" fill="#FF95F8" fill-opacity="0.5"/>
</svg>
